X: 128008
M: C
L: 1/8
K: Em
[|\
e2e2 E3F | (GF)GA (BA)B^c |\
d2d2 D3E | FAdB AFED |\
e2e2 E3F | EFGA BAB^c |\
d^cBA BAGF | E4 e2z2 ||
e2B2 g2B2 | a2B2 b3a |\
gfed BAB^d | e4 e2z2 |]


